src/public/icons/logo.svg

<svg width="69" height="54" viewBox="0 0 69 54" fill="none" xmlns="http://www.w3.org/2000/svg">
<path d="M37.8308 41.0779C37.352 39.2712 36.7135 37.4646 35.8355 35.6579C32.0046 27.3638 28.0938 18.9054 24.183 10.7755L21.3097 4.69867C20.8308 3.6311 19.6337 1.24962 19.5539 1.1675V0.921143V1.24962C19.5539 1.33174 19.1548 8.72255 18.9952 12.1716C18.8355 16.1955 18.6759 19.6445 18.5961 23.1757C18.4365 29.6632 18.3567 35.001 18.2769 40.1745C18.2769 41.899 18.2769 43.7057 18.6759 45.4302C19.7135 50.4395 23.5445 53.5601 28.3332 53.5601C28.9717 53.5601 29.69 53.478 30.4083 53.3959C32.9623 52.9031 35.2768 51.2607 36.7933 48.8793C38.0703 46.4157 38.5492 43.6236 37.8308 41.0779ZM20.1125 36.5612L27.6149 34.5082H27.6947L27.2158 32.6195L20.0327 34.5904L20.9107 8.14771C22.1078 10.7755 30.4881 28.6777 34.5585 37.5467C35.2769 39.107 35.7557 40.5851 36.075 41.9812C36.474 43.9521 36.075 46.0872 34.9576 47.8938C33.7604 49.7005 32.0046 51.0144 30.0092 51.425C27.7745 51.9177 25.5398 51.425 23.7839 50.1932C22.028 49.0435 20.8308 47.1547 20.4318 45.0196C20.1923 43.8699 20.1923 42.6381 20.1125 41.4063C20.1125 40.9957 20.1125 40.5851 20.0327 40.0924C20.0327 39.2712 20.1125 36.9718 20.1125 36.5612Z" fill="black"/>
<path d="M0 23.5862V7.08008H5.58685C7.34272 7.08008 8.77934 7.49068 9.89671 8.14764C11.0141 8.88672 11.892 9.87216 12.5305 11.104C13.0892 12.3358 13.4084 13.7318 13.4084 15.2921C13.4084 16.9345 13.0892 18.4126 12.4507 19.6444C11.8122 20.8762 10.9343 21.8617 9.73709 22.5187C8.5399 23.2577 7.1831 23.5862 5.58685 23.5862H0ZM11.2535 15.2921C11.2535 14.0603 11.0141 12.9106 10.615 12.0073C10.1361 11.0218 9.49765 10.2828 8.69953 9.70792C7.82159 9.13308 6.78404 8.88672 5.58685 8.88672H2.07512V21.6974H5.58685C6.86385 21.6974 7.90141 21.4511 8.69953 20.8762C9.57746 20.3014 10.216 19.5623 10.615 18.5769C11.0939 17.5914 11.2535 16.5239 11.2535 15.2921Z" fill="black"/>
<path d="M38.5493 23.5862V7.08008H45.4132C46.1315 7.08008 46.77 7.24432 47.3287 7.5728C47.8874 7.90128 48.446 8.31188 48.8451 8.8046C49.2442 9.29732 49.6432 9.87216 49.8827 10.5291C50.1221 11.1861 50.2817 11.7609 50.2817 12.4179C50.2817 13.157 50.1221 13.896 49.8827 14.553C49.5634 15.21 49.2442 15.7848 48.6855 16.2775C48.2066 16.7702 47.5681 17.0987 46.9296 17.263L50.8404 23.5862H48.5259L44.8545 17.6736H40.6244V23.5862H38.5493ZM40.6244 15.7848H45.493C46.0517 15.7848 46.5305 15.6206 46.9296 15.2921C47.3287 14.9636 47.6479 14.553 47.8874 14.0603C48.1268 13.5676 48.2066 12.9927 48.2066 12.3358C48.2066 11.6788 48.047 11.104 47.8075 10.6112C47.5681 10.1185 47.169 9.70792 46.77 9.37944C46.3709 9.05096 45.8122 8.88672 45.3334 8.88672H40.6244V15.7848Z" fill="black"/>
<path d="M54.8311 23.5863V7.08017H56.9062V16.1955L65.1268 6.99805H67.3616L60.8968 14.3067L67.6808 23.5863H65.3663L59.54 15.5385L56.8264 18.4949V23.5863H54.8311Z" fill="black"/>
<path d="M0 51.6713V35.083H6.86385C7.58216 35.083 8.22066 35.2472 8.77934 35.5757C9.33803 35.9042 9.89671 36.3148 10.2958 36.8075C10.6948 37.3003 11.0939 37.8751 11.3333 38.5321C11.5728 39.189 11.7324 39.7639 11.7324 40.4208C11.7324 41.1599 11.5728 41.899 11.3333 42.5559C11.0141 43.2129 10.6948 43.7877 10.1361 44.2805C9.65727 44.7732 9.01878 45.1017 8.38028 45.2659L12.2911 51.5891H9.97652L6.30516 45.6765H2.07512V51.5891H0V51.6713ZM2.07512 43.8699H6.94366C7.50235 43.8699 7.98122 43.7056 8.38028 43.3771C8.77934 43.0487 9.09859 42.6381 9.33803 42.1453C9.57746 41.6526 9.65728 41.0778 9.65728 40.4208C9.65728 39.7639 9.49765 39.189 9.25821 38.6963C9.01878 38.2036 8.61972 37.793 8.22066 37.4645C7.82159 37.136 7.26291 36.9718 6.78404 36.9718H2.07512V43.8699Z" fill="black"/>
<path d="M44.2959 51.6713V35.083H46.371V51.6713H44.2959Z" fill="black"/>
<path d="M56.5073 38.9427V51.5891H54.4321V35.083H56.188L66.0049 48.058V35.1651H68.08V51.6713H66.2443L56.5073 38.9427Z" fill="black"/>
</svg>

<?xml version="1.0" encoding="utf-8"?>
<!-- Generator: Adobe Illustrator 26.0.3, SVG Export Plug-In . SVG Version: 6.00 Build 0)  -->
<svg version="1.1" id="Слой_1" xmlns="http://www.w3.org/2000/svg" xmlns:xlink="http://www.w3.org/1999/xlink" x="0px" y="0px"
	 viewBox="0 0 69 54" style="enable-background:new 0 0 69 54;" xml:space="preserve">
<path d="M37.8,41.1c-0.5-1.8-1.1-3.6-2-5.4c-3.8-8.3-7.7-16.8-11.7-24.9l-2.9-6.1c-0.5-1.1-1.7-3.4-1.8-3.5V0.9v0.3
	c0,0.1-0.4,7.5-0.6,10.9c-0.2,4-0.3,7.5-0.4,11c-0.2,6.5-0.2,11.8-0.3,17c0,1.7,0,3.5,0.4,5.3c1,5,4.9,8.1,9.7,8.1
	c0.6,0,1.4-0.1,2.1-0.2c2.6-0.5,4.9-2.1,6.4-4.5C38.1,46.4,38.5,43.6,37.8,41.1z M20.1,36.6l7.5-2.1h0.1l-0.5-1.9l-7.2,2l0.9-26.4
	c1.2,2.6,9.6,20.5,13.6,29.4c0.7,1.6,1.2,3,1.5,4.4c0.4,2,0,4.1-1.1,5.9c-1.2,1.8-3,3.1-4.9,3.5c-2.2,0.5-4.5,0-6.2-1.2
	c-1.8-1.1-3-3-3.4-5.2c-0.2-1.1-0.2-2.4-0.3-3.6c0-0.4,0-0.8-0.1-1.3C20,39.3,20.1,37,20.1,36.6z"/>
<path d="M0,23.6V7.1h5.6c1.8,0,3.2,0.4,4.3,1.1c1.1,0.7,2,1.7,2.6,3c0.6,1.2,0.9,2.6,0.9,4.2c0,1.6-0.3,3.1-1,4.4s-1.5,2.2-2.7,2.9
	c-1.2,0.7-2.6,1.1-4.2,1.1H0z M11.3,15.3c0-1.2-0.2-2.4-0.6-3.3c-0.5-1-1.1-1.7-1.9-2.3C7.8,9.1,6.8,8.9,5.6,8.9H2.1v12.8h3.5
	c1.3,0,2.3-0.2,3.1-0.8c0.9-0.6,1.5-1.3,1.9-2.3C11.1,17.6,11.3,16.5,11.3,15.3z"/>
<path d="M38.5,23.6V7.1h6.9c0.7,0,1.4,0.2,1.9,0.5c0.6,0.3,1.1,0.7,1.5,1.2c0.4,0.5,0.8,1.1,1,1.7c0.2,0.7,0.4,1.2,0.4,1.9
	c0,0.7-0.2,1.5-0.4,2.1c-0.3,0.7-0.6,1.2-1.2,1.7c-0.5,0.5-1.1,0.8-1.8,1l3.9,6.3h-2.3l-3.7-5.9h-4.2v5.9H38.5z M40.6,15.8h4.9
	c0.6,0,1-0.2,1.4-0.5s0.7-0.7,1-1.2c0.2-0.5,0.3-1.1,0.3-1.7c0-0.7-0.2-1.2-0.4-1.7c-0.2-0.5-0.6-0.9-1-1.2c-0.4-0.3-1-0.5-1.4-0.5
	h-4.7V15.8z"/>
<path d="M54.8,23.6V7.1h2.1v9.1L65.1,7h2.2l-6.5,7.3l6.8,9.3h-2.3l-5.8-8l-2.7,3v5.1H54.8z"/>
<path d="M0,51.7V35.1h6.9c0.7,0,1.4,0.2,1.9,0.5c0.6,0.3,1.1,0.7,1.5,1.2c0.4,0.5,0.8,1.1,1,1.7c0.2,0.7,0.4,1.2,0.4,1.9
	c0,0.7-0.2,1.5-0.4,2.1c-0.3,0.7-0.6,1.2-1.2,1.7c-0.5,0.5-1.1,0.8-1.8,1l3.9,6.3H10l-3.7-5.9H2.1v5.9L0,51.7L0,51.7z M2.1,43.9h4.9
	c0.6,0,1-0.2,1.4-0.5c0.4-0.3,0.7-0.7,1-1.2c0.2-0.5,0.3-1.1,0.3-1.7c0-0.7-0.2-1.2-0.4-1.7c-0.2-0.5-0.6-0.9-1-1.2
	c-0.4-0.3-1-0.5-1.4-0.5H2.1V43.9z"/>
<path d="M44.3,51.7V35.1h2.1v16.6H44.3z"/>
<path d="M56.5,38.9v12.6h-2.1V35.1h1.8l9.8,13V35.2h2.1v16.5h-1.8L56.5,38.9z"/>
</svg>
